src/lib/packages/icons/src/assets/line/tv-play.svg

<svg width="24" height="24" viewBox="0 0 24 24" fill="none" xmlns="http://www.w3.org/2000/svg">
<path d="M18 3.25H6C3.582 3.25 2.25 4.66396 2.25 7.23096V14.769C2.25 17.336 3.582 18.75 6 18.75H18C20.418 18.75 21.75 17.336 21.75 14.769V7.23096C21.75 4.66396 20.418 3.25 18 3.25ZM20.25 14.769C20.25 16.508 19.577 17.25 18 17.25H6C4.423 17.25 3.75 16.508 3.75 14.769V7.23096C3.75 5.49196 4.423 4.75 6 4.75H18C19.577 4.75 20.25 5.49196 20.25 7.23096V14.769ZM17.75 21C17.75 21.414 17.414 21.75 17 21.75H7C6.586 21.75 6.25 21.414 6.25 21C6.25 20.586 6.586 20.25 7 20.25H17C17.414 20.25 17.75 20.586 17.75 21ZM14.9729 9.61499L11.825 7.68799C11.303 7.36799 10.647 7.35603 10.114 7.65503C9.57301 7.95803 9.25098 8.50795 9.25098 9.12695V12.873C9.25098 13.492 9.57301 14.042 10.114 14.345C10.371 14.489 10.6559 14.561 10.9409 14.561C11.2479 14.561 11.554 14.478 11.825 14.312L14.9719 12.386C15.4589 12.088 15.75 11.57 15.75 11C15.75 10.43 15.4589 9.91199 14.9729 9.61499ZM14.189 11.106L11.041 13.033C10.959 13.083 10.8909 13.0611 10.8469 13.0371C10.8029 13.0121 10.75 12.964 10.75 12.873V9.12695C10.75 9.03695 10.8029 8.98789 10.8469 8.96289C10.8709 8.94889 10.9039 8.93701 10.9419 8.93701C10.9719 8.93701 11.006 8.94504 11.042 8.96704L14.1899 10.894C14.1899 10.894 14.1899 10.894 14.1909 10.894C14.2299 10.918 14.251 10.954 14.251 10.999C14.251 11.044 14.229 11.082 14.189 11.106Z" fill="currentColor"/>
</svg>

<svg xmlns="http://www.w3.org/2000/svg" width="24" height="24" fill="none"><path fill="currentColor" d="M18 3.25H6c-2.418 0-3.75 1.414-3.75 3.981v7.538c0 2.567 1.332 3.981 3.75 3.981h12c2.418 0 3.75-1.414 3.75-3.981V7.231c0-2.567-1.332-3.981-3.75-3.981Zm2.25 11.519c0 1.739-.673 2.481-2.25 2.481H6c-1.577 0-2.25-.742-2.25-2.481V7.231c0-1.739.673-2.481 2.25-2.481h12c1.577 0 2.25.742 2.25 2.481v7.538ZM17.75 21a.75.75 0 0 1-.75.75H7a.75.75 0 0 1 0-1.5h10a.75.75 0 0 1 .75.75ZM14.973 9.615l-3.148-1.927a1.693 1.693 0 0 0-1.711-.033 1.666 1.666 0 0 0-.863 1.472v3.746c0 .619.322 1.169.863 1.472a1.69 1.69 0 0 0 1.711-.033l3.147-1.926c.487-.298.778-.816.778-1.386s-.291-1.088-.777-1.385Zm-.784 1.491-3.148 1.927a.182.182 0 0 1-.194.004.18.18 0 0 1-.097-.164V9.127c0-.09.053-.14.097-.164a.19.19 0 0 1 .095-.026.19.19 0 0 1 .1.03l3.148 1.927c.04.024.061.06.061.105a.121.121 0 0 1-.062.107Z"/></svg>
